!!!OTL: Lockung.
!!!ARE: Europa, Mitteleuropa, Deutschland
!!!SCT: A0190
!!!TXL: @@GMH
!!!YEM: Copyright 1995, estate of Helmut Schaffrath.
**kern	**text
*M6/2	*
*met(3)	*
*clefC4	*
*k[b-]	*
*F:ion	*
!LO:TX:a:t=jon. (F)	!
{2F	Ach
=1	=1
1F	jung-
2F	-fraw,
1A	wolt
2B-	ir
=2	=2
1c	mit
2A	mir
1F}	gan,
{2f	abr
=3	=3
1f	wolt
2f	ir
1e	mit
2c	mir
=4	=4
1.d	rei-
1c}	-ten?
{2F	ſo
=5	=5
1c	kauf
2f	ich
*lig	*
2e	euch
2c	.
*Xlig	*
2d	ein
=6	=6
1c	ſi-
2c	-che-
1A}	-lein,
{2d	vorm
=7	=7
*lig	*
2.c	ſchwarʒ-
4B-	.
*Xlig	*
2A	-wald
*lig	*
2G	müßt
2F	.
*Xlig	*
2E	ir
=8	=8
1.D	ſchneiden,
1C}	.
{2C	ja
=9	=9
2.F	ſchnei-
4G	.
4A/	.
4B-	.
1c	.
4B-	.
4A	.
=10	=10
1.G	.
1F}	-den.
==	==
!!!GTL: Liebeslieder
!!!AGN: Romanze, Ballade, Lied
!! Nach Forster II 1540 No. 73, dort rhythmisch entstellt, mit
!!    zweimaligem Taktwechsel. Alles deutet auf durchgaengigen Tripeltakt,
!!    den ich durch geringfuegige Aenderungen hergestellt habe.
!!!ONB: ESAC (Essen Associative Code) Database: ALTDEU
!!!AMT: compound duple
!!!AIN: vox
!!!EED: Helmut Schaffrath
!!!EEV: 1.0
!!!RDF**kern: l = terminal long
!!!AMD: Ionian
!!!URL-scan: https://rosdok.uni-rostock.de/mcrviewer/recordIdentifier/rosdok_ppn738218359/iview2/phys_0348.iview2?x=-495.6391625615763&y=1264.5204883059487&scale=0.4629418472063854&rotation=0&layout=singlePageLayout&logicalDiv=log_0009
!!!ENC: Anna Maria Matuszewska
!!!EEV: 2024/07/03
*-	*-
